X:1
T:Over There (Wells)
T:Over There (Wells)
T:Arranged from John William Albert Cluett
T:Elvenah Cooper Raymond Wells, 1868
T:Public Domain Courtesy of the Cyber Hymnal™
T:Public Domain Courtesy of the Cyber Hymnal™
C:Arranged from John William Albert Cluett
Z:Public Domain
Z:Courtesy of the Cyber Hymnal™
%%score ( 1 2 ) 3
L:1/8
Q:1/4=100
M:4/4
K:D
V:1 treble 
V:2 treble 
V:3 bass 
V:1
 [FA][FA] | [Fd]2 [Ac]>[GB] ([GB][FA]) [GB]>[EG] | [DF]4 z2 D>[DF] | [FA]2 [EG]>[DF] | %4
w: 1.~In that|beau- ti- ful home * o- ver|there, By the|side of the|
w: 2.~The now|glor- i- fied saints * o- ver|there, They once|suf- fered and|
w: 3.~They have|gone to their home * o- ver|there, Where the|ci- ty is|
 ([DF][CE]) [CG]>[A,C] | [A,D]4 z2 [FA][FA] | [Fd]2 [Ac]>[GB] ([GB][FA]) [GB]>[EG] | %7
w: Ri- * ver of|Life, Where the|am- a- ranth blooms * ev- er|
w: toiled * here be-|low; Now ex-|alt- ed, Christ’s tri- * umph they|
w: glor- * ious and|bright, And the|crowns of the vic- * tor they|
 [DF]4 z2 D>[DF] | [FA]2 [EG]>[DF] | ([DF][CE]) [CG]>[A,C] | [A,D]4 z2 ||"^Refrain" [DF]>[DF] | %12
w: fair, Is no|sor- row, nor|sigh- * ing, or|strife.||
w: share, Sin, nor|an- guish, nor|death * ev- er|know.|Where the|
w: wear, And our|God and the|Lamb * are the|light.||
 [EG]2 [DF][CE] [Ec]2 [GB][Gc] | [Fd]2 [FA]>[^E^G] [FA]2 D[DF] | %14
w: ||
w: am- a- ranth blooms ev- er|fair, Ev- er fair, Is no|
w: ||
 [CA]2 [EG]>[DF] ([DF][CE]) [GB]>[FA] | D4 z2 [FA]>[FA] | [Fd]2 [Ac]>[GB] | (BA) [GB]>[EG] | %18
w: ||||
w: sor- row, nor sigh- * ing, nor|strife. ’Tis a|beau- ti- ful|place * o- ver|
w: ||||
 [DF]2 [FA]>[^E^G] [FA]2 [FA]>[FA] | [GA]6 [Ec]>[Gc] | [Fd]6 |] %21
w: |||
w: there, O- ver there, O- ver|there, o- ver|there.|
w: |||
V:2
 x2 | x8 | x6 D3/2 x/ | x4 | x4 | x8 | x8 | x6 D3/2 x/ | x4 | x4 | x6 || x2 | x8 | x8 | x8 | %15
 D4 x4 | x4 | G2 x2 | x8 | x8 | x6 |] %21
V:3
 [D,A,][D,A,] | [D,A,]2 [D,A,]>[D,D] [D,D]2 [D,D]>[D,B,] | [D,A,]4 z2 [D,F,]>[D,A,] | %3
w: ~ ~|~ ~ ~ ~ ~ ~|~ ~ ~|
 [D,A,]2 [A,,A,]>[A,,A,] | [A,,A,]2 [A,,A,]>[A,,G,] | [D,F,]4 z2 [D,A,][D,A,] | %6
w: ~ ~ ~|~ ~ ~|~ ~ ~|
 [D,A,]2 [D,A,]>[D,D] [D,D]2 [D,D]>[D,B,] | [D,A,]4 z2 [D,F,]>[D,A,] | [D,A,]2 [A,,A,]>[A,,A,] | %9
w: ~ ~ ~ ~ ~ ~|~ ~ ~|~ ~ ~|
 [A,,A,]2 [A,,A,]>[A,,G,] | [D,F,]4 z2 || [D,A,]>[D,A,] | %12
w: ~ ~ ~|~|~ ~|
 [A,,A,]2 [A,,A,][A,,A,] [A,,A,]2 [A,,A,][A,,A,] | [D,A,]2 [D,D]>[D,D] [D,D]2 [D,F,][D,A,] | %14
w: ~ ~ ~ ~ ~ ~|~ ~ ~ ~ ~ ~|
 [A,,A,]2 [A,,A,]>[A,,A,] [A,,A,]2 [A,,A,]>[A,,A,] | [D,F,]4 z2 [D,A,]>[D,A,] | %16
w: ~ ~ ~ ~ ~ ~|~ ~ ~|
 [D,A,]2 [D,A,]>[D,D] | [G,D]2 [G,D]>[G,B,] | [D,A,]6 [D,D]>[D,D] | %19
w: ~ ~ ~|~ ~ ~|~ ~ ~|
 [E,C]2 [E,C]>[E,C] [A,C]2 [A,,A,]>[A,,A,] | [D,A,]6 |] %21
w: ~ o- ver there, * *||

